frontend/src/components/resources/cards/9S.svg

<svg xmlns="http://www.w3.org/2000/svg" xmlns:xlink="http://www.w3.org/1999/xlink" class="9S_svg__card" height="336" preserveAspectRatio="none" viewBox="-106 -164.5 212 329" width="216"><symbol id="9S_svg__b" viewBox="-600 -600 1200 1200" preserveAspectRatio="xMinYMid"><path d="M0-500c100 250 355 400 355 685a150 150 0 01-300 0 10 10 0 00-20 0c0 200 50 215 95 315h-260c45-100 95-115 95-315a10 10 0 00-20 0 150 150 0 01-300 0c0-285 255-435 355-685z"/></symbol><symbol id="9S_svg__a" viewBox="-500 -500 1000 1000" preserveAspectRatio="xMinYMid"><path d="M250-100a250 250 0 01-500 0v-110a250 250 0 01500 0v420A250 250 0 010 460c-150 0-180-60-200-85" stroke="#000" stroke-width="80" stroke-linecap="square" stroke-miterlimit="1.5" fill="none"/></symbol><rect width="211" height="328" x="-105.5" y="-164" rx="12" ry="12" fill="#fff" stroke="#000"/><use xlink:href="#9S_svg__a" height="32" x="-100.4" y="-152.5"/><use xlink:href="#9S_svg__b" height="26.769" x="-97.784" y="-115.5"/><use xlink:href="#9S_svg__b" height="54" x="-72.167" y="-130.667"/><use xlink:href="#9S_svg__b" height="54" x="18.167" y="-130.667"/><use xlink:href="#9S_svg__b" height="54" x="-72.167" y="-61.555"/><use xlink:href="#9S_svg__b" height="54" x="18.167" y="-61.555"/><use xlink:href="#9S_svg__b" height="54" x="-27" y="-27"/><g transform="rotate(180)"><use xlink:href="#9S_svg__a" height="32" x="-100.4" y="-152.5"/><use xlink:href="#9S_svg__b" height="26.769" x="-97.784" y="-115.5"/><use xlink:href="#9S_svg__b" height="54" x="-72.167" y="-130.667"/><use xlink:href="#9S_svg__b" height="54" x="18.167" y="-130.667"/><use xlink:href="#9S_svg__b" height="54" x="-72.167" y="-61.555"/><use xlink:href="#9S_svg__b" height="54" x="18.167" y="-61.555"/></g></svg>

<?xml version="1.0" encoding="UTF-8" standalone="no"?>
<svg xmlns="http://www.w3.org/2000/svg" xmlns:xlink="http://www.w3.org/1999/xlink" class="card" face="9S" height="3.5in" preserveAspectRatio="none" viewBox="-106 -164.5 212 329" width="2.25in"><symbol id="SS9" viewBox="-600 -600 1200 1200" preserveAspectRatio="xMinYMid"><path d="M0 -500C100 -250 355 -100 355 185A150 150 0 0 1 55 185A10 10 0 0 0 35 185C35 385 85 400 130 500L-130 500C-85 400 -35 385 -35 185A10 10 0 0 0 -55 185A150 150 0 0 1 -355 185C-355 -100 -100 -250 0 -500Z" fill="black"></path></symbol><symbol id="VS9" viewBox="-500 -500 1000 1000" preserveAspectRatio="xMinYMid"><path d="M250 -100A250 250 0 0 1 -250 -100L-250 -210A250 250 0 0 1 250 -210L250 210A250 250 0 0 1 0 460C-150 460 -180 400 -200 375" stroke="black" stroke-width="80" stroke-linecap="square" stroke-miterlimit="1.5" fill="none"></path></symbol><rect width="211" height="328" x="-105.5" y="-164" rx="12" ry="12" fill="white" stroke="black"></rect><use xlink:href="#VS9" height="32" x="-100.4" y="-152.5"></use><use xlink:href="#SS9" height="26.769" x="-97.784" y="-115.5"></use><use xlink:href="#SS9" height="54" x="-72.167" y="-130.667"></use><use xlink:href="#SS9" height="54" x="18.167" y="-130.667"></use><use xlink:href="#SS9" height="54" x="-72.167" y="-61.555"></use><use xlink:href="#SS9" height="54" x="18.167" y="-61.555"></use><use xlink:href="#SS9" height="54" x="-27" y="-27"></use><g transform="rotate(180)"><use xlink:href="#VS9" height="32" x="-100.4" y="-152.5"></use><use xlink:href="#SS9" height="26.769" x="-97.784" y="-115.5"></use><use xlink:href="#SS9" height="54" x="-72.167" y="-130.667"></use><use xlink:href="#SS9" height="54" x="18.167" y="-130.667"></use><use xlink:href="#SS9" height="54" x="-72.167" y="-61.555"></use><use xlink:href="#SS9" height="54" x="18.167" y="-61.555"></use></g></svg>
